X:1
T:Venezuela, 88.88.10.10
T:Venezuela, 88.88.10.10
T:Robert Lowry, 1880
T:Public Domain Courtesy of the Cyber Hymnal™
C:Robert Lowry, 1880
Z:Public Domain
Z:Courtesy of the Cyber Hymnal™
%%score ( 1 2 ) 3
L:1/8
Q:1/4=88
M:6/8
K:F
V:1 treble 
V:2 treble 
V:3 bass 
V:1
 [CF]2 [CF] [CF]<[CF][CF] | [CE]2 [CE] [CF]2 z | [FA]2 [FA] [FA]<[FA][FA] | [EG]2 [EG] [FA]2 z | %4
 [Fc]2 [Fc] [FA]<[FA][FA] | [CF]2 [DG] [CE]2 z | [A,F]2 [A,F] [A,F]<[A,F][A,F] | %7
 [CA]2 [CG] [CF]2 [FA] | [Fc]>[Fc][Fc] [FA]2 [FA] | [GB]>[GB][GB] [EG]2 [EG] | %10
 F[EG][FA] !fermata![FB]2 [DG]/[DG]/ | [CF]2 [CE] [CF]2 z |] %12
V:2
 x6 | x6 | x6 | x6 | x6 | x6 | x6 | x6 | x6 | x6 | F x5 | x6 |] %12
V:3
 [F,A,]2 [F,A,] [F,A,]<[F,A,][F,A,] | [C,G,]2 [C,G,] [F,A,]2 z | [F,C]2 [F,C] [F,C]<[F,C][F,C] | %3
 [C,C]2 [C,C] [F,C]2 z | [F,A,]2 [F,A,] [F,C]<[F,C][F,C] | [F,A,]2 [B,,B,] [C,G,]2 z | %6
 [D,F,]2 [D,F,] [D,F,]<[D,F,][D,F,] | [C,F,]2 [C,B,] [F,A,]2 [F,C] | %8
 [F,A,]>[F,A,][F,A,] [F,C]2 [F,C] | [C,C]>[C,C][C,C] [C,C]2 [C,B,] | %10
 [D,A,][C,C][=E,_E] !fermata![B,,D]2 [B,,B,]/[B,,B,]/ | [C,A,]2 [C,G,] [F,,A,]2 z |] %12

